X:3015
L:1/4
Q:1/2=100
M:2/2
K:Emin
 B | e2 f2 | g (f/e/) ^d B | A F G E | B3 :: d | B2 d2 | f e ^c A | ^c2 d2 | a (g/f/) ^d B | 
 e g B ^d | e3 :|

